X: 04023
T: DICK NEVELL'S JIG
C: Bob McQuillen 13 Sept 78
B: Bob's Note Book 04 #23
R: jig
Z: 2020 John Chambers <jc:trillian.mit.edu>
N: The 1st ending of the 2nd part should probably include the final | B3 A2 | bar.
M: 6/8
L: 1/8
K: A
E \
| AFE FAB | cef e2c | e>af ecA | B>cB AFE |\
| AFE FAB | cef ece | faf ecA | B>cB A2 :|
|: e \
| afe faf | ecA B>AB | cBA BcB | AFE F>AF |\
| EFA BAB | cBc d>af |1 ecA ABc |2 ecA edc | B3 A2 :|
%%begintext align
%% For a good friend, with
%% fondest Best Wishes always.
%%endtext

%%sep 1 1 500

%%sep 1 1 500

